X:551
T:
S:Ur handl. Aug. Nybergs samling, Klintehamn.
R:vals
O:Gotland, Klintehamn
M:3/4
L:1/8
K:G
BA|(GD)(GB)(dc)|(BG)(Bd) g2|fgagfe|dedcBA|(GD)(GB)(dc)|
(BG)(Bd) g2|(gf)(ad)(ef)|g4::g2|e2 cc(eg)|d2 BB(dg)|
c2 AA(Bc)|B2 GG (gf)|e2 cc (eg)|d2 BB(dg)|(fg)(ad)(ef)|g4:|
K:C
|:G2|c4c2|e4 c2|(AB)(cd)(ed)|c2 (BA) B2|B4 d2|f4 d2|(GA)(Bc)(de)|
f2 (ed) e2|c4 c2|e4 c2|(EF)(GA)(Bc)|B2 AG A2|a4 g2|f4 e2|
(dc)(BG)(AB)|c4:|

